-----BEGIN PGP PUBLIC KEY BLOCK-----

mDMEan96ehYJKwYBBAHaRw8BAQdA2eUH4eViEGBn1XpmdppSRxZSBsbI3Ve+6m45
0Munzqa0Q0pvc2h1YSBSYXBoYWVsIFJleW5vbGRzIChtYWMtbmwtam9zcmV5KSA8
am9zaHVhLnJleW5vbGRzQHNpbmNoLmNvbT6IkAQTFgoAOBYhBGvrbF1/sKTuKD9u
NT+vblB+yrVmBQJqf3p6AhsDBQsJCAcCBhUKCQgLAgQWAgMBAh4BAheAAAoJED+v
blB+yrVmiW0A/1GQHSODwIZKmHl8JuaZ+NyHTe7BiZQDCX4BFgaaq1R1AQCmrVZ8
Hb9bk+Fn0L9GLhY9aRPQhzVNzQJSLi9E3uo+ALg4BGp/eocSCisGAQQBl1UBBQEB
B0D9OkqCebRN2lEt2y9OCaijW2FjluL9NpJrXLTc9BGyFAMBCAeIeAQYFgoAIBYh
BGvrbF1/sKTuKD9uNT+vblB+yrVmBQJqf3qHAhsMAAoJED+vblB+yrVmBSwA/1Qj
DoqXHeztM1qcNnwciuu6pvTQwgm3SnWnhNTNMLeNAP4vTNtl/ZO6dXgtI4BUGimf
DtX3fO3UbIZ76iVHt5XwDg==
=StRl
-----END PGP PUBLIC KEY BLOCK-----
